lib/brands/icons/zeplin.svg

<svg xmlns="http://www.w3.org/2000/svg" fill="none" aria-hidden="true" viewBox="0 0 48 48"><g id="zeplin-Icon"><g id="Group"><path id="Vector" fill="#FDBD39" fill-rule="evenodd" d="M11.5489 29.4524L9.66557 30.1404L9.56445 35.743L16.0838 33.3614C13.8477 32.6103 12.2148 31.2888 11.5489 29.4524" clip-rule="evenodd"/><path id="Vector_2" fill="#F69833" fill-rule="evenodd" d="M12.5344 23.5267L6 25.9138L9.66552 30.1404L11.5488 29.4524C10.8848 27.6214 11.2943 25.5515 12.5344 23.5267" clip-rule="evenodd"/><path id="Vector_3" fill="#FECF33" fill-rule="evenodd" d="M23.5307 15.4424C15.2098 18.4821 9.84538 24.7546 11.549 29.4524L41.6817 18.4446C39.9781 13.7467 31.8517 12.4027 23.5307 15.4424Z" clip-rule="evenodd"/><path id="Vector_4" fill="#EE6723" fill-rule="evenodd" d="M29.6998 32.4546C38.0207 29.4149 43.3952 23.1702 41.6816 18.4446L11.5488 29.4524C13.2625 34.1781 21.3789 35.4943 29.6998 32.4546Z" clip-rule="evenodd"/><path id="Vector_5" fill="#F69833" fill-rule="evenodd" d="M41.6816 18.4446L11.5488 29.4524C12.1389 31.0796 14.3889 31.8812 17.546 31.8812C20.6239 31.8812 24.5639 31.1198 28.6716 29.6192C36.9925 26.5795 42.8468 21.658 41.6816 18.4446" clip-rule="evenodd"/><path id="Vector_6" fill="#FDBD39" fill-rule="evenodd" d="M35.6847 16.0158C32.6068 16.0158 28.6668 16.7772 24.5591 18.2777C16.2382 21.3175 10.3839 26.239 11.5492 29.4524L41.6819 18.4446C41.0919 16.8174 38.8418 16.0158 35.6847 16.0158" clip-rule="evenodd"/><path id="Vector_7" fill="#EE6723" fill-rule="evenodd" d="M34.0202 36.0398H34.02C33.1335 36.0398 31.8255 35.2389 30.1325 33.6596C28.1295 31.7911 25.8352 29.0543 23.6719 25.9535C21.5087 22.8528 19.7312 19.7528 18.6668 17.2245C17.5071 14.4694 17.3418 12.7753 18.1753 12.1894C18.3581 12.0611 18.5784 11.996 18.8301 11.996C19.5082 11.996 20.8294 12.5009 23.2724 14.9059L23.3258 14.9585L23.3186 15.0333C23.3019 15.206 23.2865 15.3804 23.2728 15.5515L23.2455 15.8912L23.0059 15.6497C20.3736 12.9978 19.2148 12.7115 18.8388 12.7115C18.7315 12.7115 18.6461 12.7333 18.5849 12.7764C18.2234 13.0304 18.2001 14.2748 19.3244 16.9456C20.3698 19.4288 22.1215 22.4819 24.2567 25.5424C26.392 28.6033 28.6513 31.2996 30.6184 33.1347C32.7397 35.1135 33.6956 35.3272 34.0082 35.3272C34.1161 35.3272 34.2038 35.304 34.2688 35.2583C34.6502 34.9903 34.6507 33.6573 33.3969 30.7826L33.3393 30.6506L33.4653 30.5816C33.5913 30.5126 33.7132 30.4447 33.8275 30.3797L33.9784 30.2939L34.048 30.4534C34.937 32.4903 35.7681 35.0792 34.6784 35.8453C34.4947 35.9743 34.2733 36.0398 34.0202 36.0398V36.0398ZM34.02 35.7255H34.0202L34.0201 35.8826L34.02 35.7255Z" clip-rule="evenodd"/><path id="Vector_8" fill="#EE6723" fill-rule="evenodd" d="M29.9013 32.3687L29.8887 32.5253C29.6783 35.1283 29.1244 38.2577 27.6802 38.3843C27.6512 38.3869 27.621 38.3882 27.5909 38.3882C26.6098 38.3882 25.6816 36.9826 24.8322 34.2102C24.0285 31.5874 23.4048 28.0658 23.076 24.2943C22.7473 20.5235 22.7522 16.9468 23.0899 14.223C23.458 11.255 24.1588 9.70498 25.1726 9.616C25.2026 9.61324 25.2337 9.61182 25.2644 9.61182C25.9761 9.61182 27.0487 10.4177 28.1468 14.1714L27.4298 14.3098C27.0632 13.0554 26.6636 12.0352 26.267 11.3341C25.9 10.6857 25.5433 10.3286 25.2623 10.3286C25.2531 10.3286 25.2438 10.329 25.2346 10.3298C24.7952 10.3684 24.1552 11.4344 23.7984 14.3116C23.4667 16.9864 23.4627 20.5096 23.7871 24.2319C24.1117 27.9548 24.7252 31.4238 25.5145 33.9996C25.868 35.1532 26.2557 36.104 26.6357 36.7491C26.9862 37.3441 27.3253 37.6717 27.5907 37.6717C27.5998 37.6717 27.6089 37.6713 27.618 37.6706C28.0384 37.6337 28.8308 36.5244 29.1643 32.6216L29.9013 32.3687" clip-rule="evenodd"/></g></g></svg>

<svg xmlns="http://www.w3.org/2000/svg" fill="none" aria-hidden="true" viewBox="0 0 48 48"><g fill-rule="evenodd" clip-rule="evenodd"><path fill="#FDBD39" d="m11.549 29.452-1.883.688-.102 5.603 6.52-2.382c-2.236-.75-3.87-2.072-4.535-3.909"/><path fill="#F69833" d="M12.534 23.527 6 25.914l3.666 4.226 1.883-.688c-.664-1.83-.255-3.9.985-5.925"/><path fill="#FECF33" d="M23.53 15.442c-8.32 3.04-13.685 9.313-11.981 14.01l30.133-11.007c-1.704-4.698-9.83-6.042-18.151-3.003Z"/><path fill="#EE6723" d="M29.7 32.455c8.32-3.04 13.695-9.285 11.982-14.01L11.549 29.452c1.713 4.726 9.83 6.042 18.15 3.003Z"/><path fill="#F69833" d="M41.682 18.445 11.549 29.452c.59 1.628 2.84 2.43 5.997 2.43 3.078 0 7.018-.762 11.126-2.263 8.32-3.04 14.175-7.961 13.01-11.174"/><path fill="#FDBD39" d="M35.685 16.016c-3.078 0-7.018.761-11.126 2.262-8.32 3.04-14.175 7.961-13.01 11.174l30.133-11.007c-.59-1.628-2.84-2.43-5.997-2.43"/><path fill="#EE6723" d="M34.02 36.04c-.887 0-2.195-.801-3.888-2.38-2.003-1.869-4.297-4.606-6.46-7.706-2.163-3.101-3.94-6.201-5.005-8.73-1.16-2.755-1.325-4.449-.492-5.035.183-.128.403-.193.655-.193.678 0 2 .505 4.442 2.91l.054.053-.007.074a31.68 31.68 0 0 0-.046.519l-.027.34-.24-.242c-2.632-2.652-3.791-2.939-4.167-2.939a.437.437 0 0 0-.254.065c-.362.254-.385 1.499.74 4.17 1.045 2.483 2.797 5.536 4.932 8.596 2.135 3.061 4.394 5.758 6.361 7.593 2.122 1.979 3.078 2.192 3.39 2.192a.447.447 0 0 0 .26-.069c.382-.268.383-1.6-.871-4.475l-.058-.132.126-.07c.126-.068.248-.136.362-.201l.151-.086.07.16c.889 2.036 1.72 4.625.63 5.391a1.12 1.12 0 0 1-.658.195Zm0-.315v.158-.158Z"/><path fill="#EE6723" d="m29.901 32.369-.012.156c-.21 2.603-.765 5.733-2.209 5.86a1.309 1.309 0 0 1-.09.003c-.98 0-1.908-1.405-2.758-4.178-.803-2.623-1.427-6.144-1.756-9.916-.329-3.77-.324-7.347.014-10.071.368-2.968 1.069-4.518 2.083-4.607a1.01 1.01 0 0 1 .091-.004c.712 0 1.785.806 2.883 4.56l-.717.138c-.367-1.255-.766-2.275-1.163-2.976-.367-.648-.724-1.005-1.005-1.005a.32.32 0 0 0-.027 0c-.44.04-1.08 1.105-1.437 3.983-.331 2.674-.335 6.198-.01 9.92.324 3.723.937 7.192 1.727 9.768.353 1.153.74 2.104 1.12 2.75.351.594.69.922.956.922l.027-.001c.42-.037 1.213-1.147 1.546-5.05l.737-.252"/></g></svg>
